X:16
T:Lock the Door
Z: id:dc-slide-17
M:6/8
L:1/8
K:E Dorian
B,|EDE BAG|FDF AFD|EDE BAB|AGF E2B,|!
EDE BAG|FDF AFA|d2B AGF|E3 E2:|!
A|B2c d2e|dcB AFA|B2c d2e|fdB fdA|!
B2c d2e|dcB AFA|d2B AGF|E3 E2:|!

